src/assets/element.svg

<svg width="26" height="26" viewBox="0 0 26 26" fill="none" xmlns="http://www.w3.org/2000/svg">
<path d="M6 14.0283C9.29793 14.0283 11.9717 16.702 11.9717 20C11.9717 23.298 9.29793 25.9717 6 25.9717C2.70207 25.9717 0.0283203 23.298 0.0283203 20C0.0283204 16.702 2.70207 14.0283 6 14.0283ZM20 14.0283C23.298 14.0283 25.9717 16.702 25.9717 20C25.9717 23.298 23.298 25.9717 20 25.9717C16.702 25.9717 14.0283 23.298 14.0283 20C14.0283 16.702 16.702 14.0283 20 14.0283ZM6 15.9717C3.77507 15.9717 1.97168 17.775 1.97168 20C1.97168 22.225 3.77507 24.0283 6 24.0283C8.22493 24.0283 10.0283 22.225 10.0283 20C10.0283 17.775 8.22493 15.9717 6 15.9717ZM20 15.9717C17.775 15.9717 15.9717 17.775 15.9717 20C15.9717 22.225 17.775 24.0283 20 24.0283C22.225 24.0283 24.0283 22.225 24.0283 20C24.0283 17.775 22.225 15.9717 20 15.9717ZM6 0.0283203C9.29793 0.0283203 11.9717 2.70207 11.9717 6C11.9717 9.29793 9.29793 11.9717 6 11.9717C2.70207 11.9717 0.0283203 9.29793 0.0283203 6C0.0283204 2.70207 2.70207 0.0283204 6 0.0283203ZM20 0.0283203C20.5365 0.0283203 20.9717 0.463495 20.9717 1V5.02832H25C25.5365 5.02832 25.9717 5.46349 25.9717 6C25.9717 6.50289 25.5893 6.91694 25.0996 6.9668L25 6.97168H20.9717V11C20.9717 11.5365 20.5365 11.9717 20 11.9717C19.4635 11.9717 19.0283 11.5365 19.0283 11V6.97168H15C14.4635 6.97168 14.0283 6.53651 14.0283 6C14.0283 5.46349 14.4635 5.02832 15 5.02832H19.0283V1C19.0283 0.463495 19.4635 0.0283204 20 0.0283203ZM6 1.97168C3.77508 1.97168 1.97168 3.77508 1.97168 6C1.97168 8.22492 3.77508 10.0283 6 10.0283C8.22492 10.0283 10.0283 8.22492 10.0283 6C10.0283 3.77508 8.22492 1.97168 6 1.97168Z" fill="url(#paint0_linear_16_1049)"/>
<defs>
<linearGradient id="paint0_linear_16_1049" x1="-7.38407" y1="5.29021" x2="27.6178" y2="22.9211" gradientUnits="userSpaceOnUse">
<stop stop-color="white"/>
<stop offset="0.348218" stop-color="#00F0FF"/>
<stop offset="0.893342" stop-color="#D7EE4B"/>
<stop offset="0.996712" stop-color="#FBBD15"/>
<stop offset="1" stop-color="white"/>
</linearGradient>
</defs>
</svg>

<svg xmlns="http://www.w3.org/2000/svg" width="26" height="26" fill="none" viewBox="0 0 26 26"><path fill="url(#a)" d="M6 14.028a5.972 5.972 0 1 1 0 11.944 5.972 5.972 0 0 1 0-11.944m14 0a5.972 5.972 0 1 1 0 11.944 5.972 5.972 0 0 1 0-11.944M6 15.972a4.028 4.028 0 1 0 0 8.056 4.028 4.028 0 0 0 0-8.056m14 0a4.028 4.028 0 1 0 0 8.056 4.028 4.028 0 0 0 0-8.056M6 .028a5.972 5.972 0 1 1 0 11.944A5.972 5.972 0 0 1 6 .028m14 0c.537 0 .972.435.972.972v4.028H25a.972.972 0 0 1 .1 1.939l-.1.005h-4.028V11a.972.972 0 0 1-1.944 0V6.972H15a.972.972 0 0 1 0-1.944h4.028V1c0-.537.436-.972.972-.972M6 1.972a4.028 4.028 0 1 0 0 8.056 4.028 4.028 0 0 0 0-8.056"/><defs><linearGradient id="a" x1="-7.384" x2="27.618" y1="5.29" y2="22.921" gradientUnits="userSpaceOnUse"><stop stop-color="#fff"/><stop offset=".348" stop-color="#00f0ff"/><stop offset=".893" stop-color="#d7ee4b"/><stop offset=".997" stop-color="#fbbd15"/><stop offset="1" stop-color="#fff"/></linearGradient></defs></svg>
